X: 1
T: 't Smidje   (song version)
C: music: La\"is, 1998
C: words: medieval Flemish
R: jig
Z: 2012 John Chambers <jc:trillian.mit.edu>
S: https://www.youtube.com/watch?v=0yil398NujU
S: https://www.youtube.com/watch?v=sIr7-4wKTgk
M: 6/8
L: 1/8
K: Dm
d2e | "Dm"f2f "C"e2c | "Dm"d2A d2e | "Dm"f2f "C"e2c | "Dm"d3 :| d2e | "Bb"f6 |
"C"g3- g2g | "F"a3 a3 | "Dm"a2a a2g | "Bb"f3 f2a | "C"g3- g2e | "Dm"f3 "A7"e3 | "Dm"d3 |]
